svg/wall_sconce_round_outline.svg

<svg xmlns="http://www.w3.org/2000/svg" viewBox="0 0 24 24"><path d="M13 19v-3h-2v3zm6.09-2.5 1.41-1.41-1.77-1.77-1.41 1.41zm-14.18 0 1.77-1.77-1.41-1.41-1.77 1.77zM12 6c1.04 0 2.08.28 3 .81 1.26.69 2.19 1.86 2.66 3.19H6.34C6.81 8.67 7.74 7.5 9 6.81A6.03 6.03 0 0 1 12 6m0-2c-1.37 0-2.75.36-4 1.07C5.5 6.5 4 9.14 4 12h16c0-2.86-1.5-5.5-4-6.93A8.1 8.1 0 0 0 12 4"/></svg>

<svg xmlns="http://www.w3.org/2000/svg" id="mdi-wall-sconce-round-outline" viewBox="0 0 24 24"><path d="M13 19V16H11V19H13M19.09 16.5L20.5 15.09L18.73 13.32L17.32 14.73L19.09 16.5M4.91 16.5L6.68 14.73L5.27 13.32L3.5 15.09L4.91 16.5M12 6C13.04 6 14.08 6.28 15 6.81C16.26 7.5 17.19 8.67 17.66 10H6.34C6.81 8.67 7.74 7.5 9 6.81C9.92 6.28 10.96 6 12 6M12 4C10.63 4 9.25 4.36 8 5.07C5.5 6.5 4 9.14 4 12H20C20 9.14 18.5 6.5 16 5.07C14.75 4.36 13.38 4 12 4Z" /></svg>
